X: 1889
T: Ufacık Tefeciktin
C: Şekip Ayhan Özışık
O: Turkey
F: http://compmusic.upf.edu/node/140
N: nihavent--fantezi--duyek--ufacik_tefeciktin--sekip_ayhan_ozisik
N: makam= nihavent
N: form= fantezi
N: usul= duyek = 8/4
M: 8/4
L: 1/16
K: C _B _e  
Q: 1/4=192
%%MIDI tuningsystem comma53
d2 g2 d4 d2 g2 d2 e2  | d16  | z2 c'4 b2 a2 g2 f4  | \
w:  ARANAĞME  |   |   | 
z2 b4 a2 g2 f2 e4  | z2 _a4 g2 f2 e2 d2 ^c2  | 
w:   |   | 
d16  | d2 g2 d4 d2 g2 d2 e2  | d16  | z2 c4 d2 e2 c2 A4  | \
w:   |   |   |   | 
z2 B4 c2 d2 B2 G4  | 
w:   | 
z2 B4 A2 d4 A2 B2  | G16  | d2 g2 d4 d2 g2 d2 e2  | d16  | \
w:   |   |  U fa cık te fe cik  |  tin  | 
z2 d4 ^f2 a8  | z2 g4 a2 b8  | 
w:  yem ye şil  |  yem ye şil  | 
z2 a4 g2 f4 e4  | d6 c2 B2 A2 G4  | d2 g2 d4 d2 g2 d2 e2  | d16  | \
w:  göz le rin var  |  dı  |  U fa cık te fe cik  |  tin  | 
z2 d4 ^f2 a8  | 
w:  yem ye şil  | 
z2 g4 a2 b8  | z2 a4 g2 f4 e4  | d6 c2 B2 c2 d4  | \
w:  yem ye şil  |  göz le rin var  |  dı  | 
z2 d4 d2 g4 f4  | g2 a2 b4 a2 g2 f4  | 
w:  Aş kı in kar  |  e di şin de bi le  | 
z2 a4 g2 f4 e4  | z2 g4 f2 e4 d4  | c2 d4 e2 f2 g2 e2 f2  | \
w:  bir gü zel lik  |  bir ze ra fet  |  bir in ce lik var  | 
d2 GA Bc de dc Bc d4  | 
w:  dı SAZ  | 
z2 d4 d2 g4 f4  | a2 g2 f4 e2 d2 c4  | \
w:  Aş kı in kar  |  e di şin de bi le  | 
z2 d4 e2 f4 g4  | z2 f4 e2 d4 c4  | 
w:  bir gü zel lik  |  bir ze ra fet  | 
A2 B4 A2 d4 A2 B2  | G6 de dc BA G4  | \
w:  bir in ce lik var  |  dı SAZ  | 
d2 g2 d4 d2 g2 d2 e2  | 
w:  U fa cık  te fe cik  | 
d16  | z2 e4 c2 A8  | z2 d4 B2 G8  | z2 B4 A2 d4 A2 B2  | G16  | \
w:  tin   |  sev gi lim   |  sen de  bir   |  baş ka lık  var  |  dı    | 
d2 g2 d4 d2 g2 d2 e2  | 
w:  U fa cık  te fe cik  | 
d16  | z2 e4 c2 A8  | z2 d4 B2 G8  | z2 B4 A2 d4 A2 B2  | G16  | \
w:  tin   |  sev gi lim   |  sen de  bir   |  baş ka lık  var  |  dı    | 
d2 g2 d4 d2 g2 d2 e2  | 
w:  SAZ  | 
d16  | z2 e4 c2 A8  | z2 d4 B2 G8  | z2 B4 A2 d4 A2 B2  | G16  | \
w:   |   |   |   |   | 
z2 G4 B2 d4 e2 f2  | 
w:  Bir  ba har  gü nüy  | 
f2 d14  | f2 d14  | d2 e4 d2 e2 d2 ^f2 d2  | e16  | \
w:  *  dü   |  *  dü   |  Bı rak tın_ el *  le ri  |  mi    | 
a2 a4 g2 ^f4 e2 e2  | d16  | d2 e4 d2 e2 d2 ^f2 d2  | 
w:  bı rak tın_ el le ri  |  mi    |  Bı rak tın_ el *  le ri  | 
e16  | a2 a4 g2 ^f4 e2 e2  | d16  | f2 g4 g2 g4 g4  | \
w:  mi    |  bı rak tın_ el le ri  |  mi    |  De din  ki  ar tık   | 
z2 g2 f2 g2 f8  | f8 z2 f2 e2 f2  | 
w:  el *  ve da   |  *  el *  ve  | 
e16  | z2 d4 e2 f4 g4  | a2 f4 g2 e4 f4  | \
w:  da   |  El ve da  sev  |  gi lim  sa na  el  | 
e2 d14  | z2 d4 e2 f4 g4  | a2 f4 g2 e4 f4  | 
w:  ve da   |  El ve da  sev  |  gi lim  sa na  el  | 
e2 d14  | d2 e4 g2 f8  | d2 e4 g2 f8  | \
w:  ve da   |  Se bep  de dim   |  SAZ  | 
f2 g4 e2 c8  | f2 g4 e2 c8  | A2 B4 c2 d4 e4  | 
w:  gü lüm se din   |  SAZ  |  De din  ki  aş kın  | 
d16  | c2 B4 A2 G4 ^F4  | e2 d14  | d2 e4 g2 f8  | \
w:  dan   |  da ha  gü zel  has  |  re tin   |  Se bep  de dim   | 
d2 e4 g2 f8  | f2 g4 e2 c8  | f2 g4 e2 c8  | 
w:  SAZ  |  gü lüm se din   |  SAZ  | 
A2 B4 c2 d4 e4  | d16  | c2 B4 A2 G4 ^F4  | \
w:  De din  ki  aş kın  |  dan   |  da ha  gü zel  has  | 
A2 G14  | G2 A2 B4 A2 B4 G2  | G2 B14  | 
w:  re tin   |  Ne  za man  ba har  gel  |  *  se   | 
A4 B2 A4 G4 ^F2  | ^F2 G2 A12  | A2 B4 B4 A2 B4  | \
w:  sen  ge lir sin_ ak  |  *  lı ma   |  Ye şil  göz le rin   | 
c4 d12  | d2 c'4 b4 a4 g2  | g2 ^f4 d2 g8  | 
w:  ge lir   |  aş kı  in kâ rın   |  *  *  ge lir    | 
d2 g2 d4 d2 g2 d2 e2  | d16  | z2 e4 c2 A8  | \
w:  U fa cık  te fe cik  |  tin   |  sev gi lim   | 
z2 d4 B2 G8  | z2 B4 A2 d4 A2 B2  | 
w:  sen de  bir   |  baş ka lık  var  | 
G16  | d2 g2 d4 d2 g2 d2 e2  | d16  | z2 e4 c2 A8  | \
w:  dı    |  U fa cık  te fe cik  |  tin   |  sev gi lim   | 
z2 d4 B2 G8  | z2 B4 A2 d4 A2 B2  | 
w:  sen de  bir   |  baş ka lık  var  | 
G16  | |


